communes/99.svg

<?xml version="1.0" encoding="UTF-8" standalone="no"?>
<!-- Created with Inkscape (http://www.inkscape.org/) -->
<svg
   xmlns:svg="http://www.w3.org/2000/svg"
   xmlns="http://www.w3.org/2000/svg"
   version="1.0"
   width="218.14536"
   height="255.52328"
   id="svg2780">
  <defs
     id="defs2782" />
  <g
     transform="translate(-17.811271,-805.83571)"
     id="layer1">
    <path
       d="M 18.84677,806.87121 L 22.77539,971.90991 C 25.58154,1089.7947 228.18634,1089.7947 230.9925,971.90991 L 234.92112,806.87121 L 18.84677,806.87121 z "
       style="fill:#2a70c8;fill-opacity:1;fill-rule:evenodd;stroke:#000000;stroke-width:2.07099771;stroke-linecap:butt;stroke-miterlimit:4;stroke-dashoffset:0;stroke-opacity:1"
       id="path3282" />
    <path
       d="M 152.93379,936.94516 C 158.20244,944.63652 169.84673,948.77003 165.2732,956.5137 C 161.76486,962.45384 149.41284,985.43202 145.42956,985.06262 C 141.32268,984.68176 137.06502,992.44342 136.03432,994.39989 C 135.01748,996.33005 130.98729,1002.4426 132.41067,1002.9618 C 133.72704,1003.442 135.09402,1003.6276 135.40043,1002.8542 C 135.86778,1002.078 138.95452,994.76853 139.78423,993.65653 C 138.95452,994.76853 135.86778,1002.078 135.40043,1002.8542 C 135.09402,1003.6276 133.69602,1004.9574 133.92612,1007.0768 C 134.14953,1009.1346 145.38807,1009.1808 146.65197,1005.7236 C 147.62575,1003.0599 147.07335,995.19379 147.08195,993.46963 C 147.09119,991.61887 149.47588,991.18785 150.33331,992.01041 C 151.22262,992.86357 153.13582,994.48285 154.41436,991.02398 C 155.99911,986.73668 158.90736,980.1795 165.21087,972.03143 C 171.92356,963.35445 173.14725,958.02383 177.86187,955.64122 C 182.64656,953.22319 172.89932,949.8482 172.62958,939.70863"
       style="fill:#ffffff;fill-opacity:1;fill-rule:evenodd;stroke:#000000;stroke-width:1px;stroke-linecap:butt;stroke-linejoin:round;stroke-opacity:1"
       id="path3262" />
    <path
       d="M 98.252623,946.4948 C 96.442808,946.55884 62.636208,944.96484 61.371421,946.35724 C 60.075311,947.78412 55.604079,945.89056 57.312631,954.82957 C 59.02334,963.77986 63.078345,968.1432 63.96637,969.48097 C 64.838205,970.79436 63.570784,971.51445 61.777647,971.05057 C 60.042855,970.60178 60.255435,972.31707 61.348649,974.60304 C 62.441864,976.88901 69.042557,977.08455 70.728161,980.92719 C 72.403552,984.74655 73.436678,989.43284 71.349788,989.32672 C 69.200735,989.21743 68.267078,989.5168 67.64707,988.75904 C 66.99059,987.95674 62.933649,985.62424 62.328977,984.37551 C 62.933649,985.62424 66.99059,987.95674 67.64707,988.75904 C 68.267078,989.5168 68.043717,990.91875 65.252252,989.89158 C 62.5156,988.88457 59.552989,984.90265 58.252177,983.15641 C 56.951364,981.41016 53.779732,977.04537 53.9051,972.68854 C 54.030469,968.39402 49.301957,950.44985 49.229136,946.7309 C 49.156314,942.94963 50.477608,941.29137 53.358287,939.59236 C 56.211324,937.90966 64.409363,933.53578 77.677903,934.32283"
       style="fill:#ffffff;fill-opacity:1;fill-rule:evenodd;stroke:#000000;stroke-width:1px;stroke-linecap:butt;stroke-linejoin:round;stroke-opacity:1"
       id="path3316" />
    <path
       d="M 49.102452,851.45159 C 41.356922,850.96575 45.692069,861.05272 50.665945,857.36385 C 55.078939,854.92138 60.222704,854.19473 69.802195,854.41303 C 60.222704,854.19473 55.078939,854.92138 50.665945,857.36385 C 46.252951,859.80632 43.690993,864.7054 41.878811,870.39112 C 40.069914,876.06653 33.786147,887.48231 40.365411,887.64584 C 39.756361,891.2318 40.439576,894.22287 44.957241,894.29057 C 49.411249,894.35732 52.755102,893.34432 52.88045,889.66666 C 53.005798,885.92669 61.955561,880.7392 67.39676,879.82772 C 67.455516,880.91558 67.39608,883.61633 67.323747,884.96089 C 67.248072,886.36759 68.828172,886.94129 68.744586,888.08025 C 68.656452,889.28119 67.144705,889.48969 66.981904,891.60561 C 66.823869,893.65959 65.813149,895.76587 67.158172,898.65634 C 63.571817,902.84832 63.312671,907.1761 67.863245,911.70019 C 64.914303,915.80595 65.959919,919.54012 70.154731,922.98135 C 67.436992,924.70727 67.968632,930.29946 71.564876,930.38461 C 71.645462,933.44475 74.899617,935.64556 77.677903,934.32283 C 77.148106,938.5212 79.26253,939.98418 83.551112,939.19802 C 84.763289,942.02911 99.062711,940.37314 106.81851,940.9607 C 109.78703,944.38323 113.0564,944.49638 116.68953,940.60817 C 118.93757,944.02783 123.49302,944.2618 127.44189,939.55056 C 129.03187,942.75496 134.16392,941.90662 136.96037,939.02175 C 140.56734,941.07187 144.09566,940.9195 147.53646,938.31668 C 148.88602,940.99547 152.66605,940.86138 154.76345,938.14041 C 156.94825,940.53934 159.29701,940.56089 161.81418,938.14041 C 163.97746,939.78569 166.45235,939.68599 168.86491,936.90653 C 177.91334,937.49409 186.96177,938.08166 196.0102,938.66922 C 197.21373,941.48421 200.28687,946.29346 204.29481,944.3098 C 206.00586,944.9722 207.84156,944.01429 208.30621,942.30853 C 209.96034,942.68428 211.05358,940.62955 210.46419,939.19802 C 211.51294,937.68462 211.93849,935.92194 210.993,933.90998 C 211.41153,930.8956 208.71403,926.38553 205.14407,926.54948 C 206.06462,922.97605 206.98516,917.78231 205.97379,914.83208 C 206.1305,913.85817 205.66402,912.32339 204.76129,911.28716 C 205.02126,910.52333 204.845,908.63774 204.04553,907.99855 C 204.02954,906.9552 203.01643,905.16401 202.00332,904.12065 C 200.99561,900.22493 198.92845,897.45098 196.05114,894.55238 C 195.0808,893.28643 194.17278,890.96103 191.95604,891.25308 C 192.21785,889.81798 191.04629,887.69737 189.00224,888.38116 C 188.14585,886.50982 186.04305,884.82545 184.25186,885.57156 C 182.97175,882.38437 178.70028,881.75231 176.79697,882.92754 C 174.04256,881.0615 169.73016,880.8781 167.41199,882.68895 C 165.1704,881.12738 161.86937,881.24846 158.81762,882.61594 C 156.12197,881.61525 153.11472,880.98848 150.35675,882.79221 C 146.36307,881.88052 143.92739,882.83844 141.36707,884.73116 C 137.94496,884.00643 133.89966,883.96722 131.84859,886.67011 C 131.0436,884.55832 126.71092,882.69109 123.56399,886.31757 C 121.7836,882.29527 116.3263,881.57594 112.9879,884.90742 C 111.84669,882.2971 108.39963,881.24479 105.88737,883.93169 C 106.34684,880.0715 103.75261,878.57949 101.2207,878.58316 C 102.58517,875.14139 99.742903,870.64805 94.944388,870.83621 C 95.754756,866.72665 94.277108,864.2819 90.601838,864.28405 C 91.659692,860.63364 88.767832,856.42254 84.608721,856.70452 C 85.618283,854.81322 83.762511,852.30075 81.612162,852.12154 C 81.802142,849.32127 81.652266,846.67205 75.971581,846.48096 C 75.86703,843.67595 71.933034,842.5057 69.27339,845.24709 C 68.836703,842.12807 64.128059,839.68772 62.927736,844.01321 C 60.821393,842.03646 58.664463,840.94499 56.229546,844.71828 C 53.288681,844.11034 51.918422,845.42697 52.300018,847.80924 C 49.445816,847.09337 48.132401,849.70195 49.102452,851.45159 z "
       style="color:#000000;fill:#ffffff;fill-opacity:1;fill-rule:evenodd;stroke:#000000;stroke-width:1px;stroke-linecap:butt;stroke-linejoin:round;marker:none;marker-start:none;marker-mid:none;marker-end:none;stroke-miterlimit:4;stroke-dashoffset:0;stroke-opacity:1;visibility:visible;display:inline;overflow:visible;enable-background:accumulate"
       id="path3318" />
    <path
       d="M 62.927736,46.997648 C 66.827669,60.680464 76.654619,73.195504 82.846039,73.437873 C 84.895156,63.897358 79.937615,49.333201 69.802195,46.028174"
       transform="translate(0,804.33069)"
       style="opacity:1;color:#000000;fill:#ffffff;fill-opacity:1;fill-rule:evenodd;stroke:#000000;stroke-width:1px;stroke-linecap:round;stroke-linejoin:round;marker:none;marker-start:none;marker-mid:none;marker-end:none;stroke-miterlimit:4;stroke-dasharray:none;stroke-dashoffset:0;stroke-opacity:1;visibility:visible;display:inline;overflow:visible;enable-background:accumulate"
       id="path3325" />
    <path
       d="M 44.0759,89.783612 C 44.866512,87.135163 47.033358,84.086976 48.209344,82.515684"
       transform="translate(0,804.33069)"
       style="opacity:1;color:#000000;fill:none;fill-opacity:0.75;fill-rule:evenodd;stroke:#000000;stroke-width:1px;stroke-linecap:round;stroke-linejoin:miter;marker:none;marker-start:none;marker-mid:none;marker-end:none;stroke-miterlimit:4;stroke-dasharray:none;stroke-dashoffset:0;stroke-opacity:1;visibility:visible;display:inline;overflow:visible;enable-background:accumulate"
       id="path3327" />
    <path
       d="M 46.881069,873.04399 C 47.4224,870.27091 51.111505,865.85274 54.056436,864.24755"
       style="opacity:1;color:#000000;fill:none;fill-opacity:0.75;fill-rule:evenodd;stroke:#000000;stroke-width:1px;stroke-linecap:round;stroke-linejoin:miter;marker:none;marker-start:none;marker-mid:none;marker-end:none;stroke-miterlimit:4;stroke-dasharray:none;stroke-dashoffset:0;stroke-opacity:1;visibility:visible;display:inline;overflow:visible;enable-background:accumulate"
       id="path3329" />
    <path
       d="M 67.334441 69.780312 A 3.0406258 2.0824127 0 1 1  61.25319,69.780312 A 3.0406258 2.0824127 0 1 1  67.334441 69.780312 z"
       transform="matrix(0.5974288,-0.5324668,0.4103339,0.4603955,-15.426572,870.44599)"
       style="opacity:1;color:#000000;fill:none;fill-opacity:0.75;fill-rule:evenodd;stroke:#000000;stroke-width:1.42231417;stroke-linecap:butt;stroke-linejoin:miter;marker:none;marker-start:none;marker-mid:none;marker-end:none;stroke-miterlimit:4;stroke-dasharray:none;stroke-dashoffset:0;stroke-opacity:1;visibility:visible;display:inline;overflow:visible;enable-background:accumulate"
       id="path3331" />
    <path
       d="M 81.682021,1009.8793 C 82.998389,1010.3595 84.427691,1010.6697 84.734098,1009.8963 C 85.201443,1009.1201 88.412826,1004.2412 89.242539,1003.1292 C 88.412826,1004.2412 85.201443,1009.1201 84.734098,1009.8963 C 84.427691,1010.6697 84.194009,1013.4814 84.256922,1014.8668 C 84.323828,1016.3402 92.981346,1016.2871 93.991402,1013.7628 C 95.044176,1011.1316 96.404907,1003.8563 96.976508,1002.0075 C 97.523187,1000.2393 98.908304,999.44656 99.791613,999.55116 C 100.68093,999.65647 103.46662,1002.0236 103.56107,999.12561 C 103.70557,994.55707 102.89066,995.90008 103.07762,982.06499 C 103.26458,968.2299 104.08468,955.13029 104.57331,944.04966 C 105.06178,932.97256 100.81439,929.86296 95.601794,929.98668 C 90.386364,930.11048 85.823388,936.52427 87.248292,942.42934 C 88.653091,948.25109 90.580874,952.9568 93.729594,965.61245 C 96.82422,978.05068 97.790183,990.57138 95.137145,993.41353 C 92.442711,996.30003 86.509477,1002.254 85.056392,1003.6856 C 83.603307,1005.1172 80.258636,1009.3601 81.682021,1009.8793 z "
       style="fill:#ffffff;fill-opacity:1;fill-rule:evenodd;stroke:#000000;stroke-width:1px;stroke-linecap:butt;stroke-linejoin:round;stroke-opacity:1"
       id="path2284" />
    <path
       d="M 192.40901,900.52958 C 199.34675,902.7533 196.42903,928.26791 197.34347,935.75871 C 198.26851,943.33634 202.27654,948.42186 205.2479,948.10455 C 208.30638,947.77792 211.5868,949.73631 209.5394,952.42088 C 207.44925,955.1615 205.76785,962.55782 205.2972,970.48304 C 204.831,978.33328 205.14319,991.10262 204.365,992.50713 C 203.60099,993.88604 201.37534,992.71755 201.0211,991.63649 C 200.67242,990.57238 196.78637,994.00719 195.62061,995.57156 C 194.29127,997.35544 196.81923,1005.4038 195.10433,1008.3034 C 193.3735,1011.23 185.48987,1014.8715 184.91304,1011.9068 C 184.33837,1008.9533 185.02391,1007.3929 185.41079,1006.4935 C 185.82041,1005.5412 189.15184,999.59192 189.98155,998.47992 C 189.15184,999.59192 185.82041,1005.5412 185.41079,1006.4935 C 185.02391,1007.3929 183.86204,1008.6393 182.23407,1007.9721 C 180.62708,1007.3135 184.17236,1000.2153 185.54612,998.78704 C 186.88842,997.39145 191.67469,991.85567 194.81672,988.51497 C 197.92752,985.20748 201.75676,956.57097 196.96142,953.48475 C 192.19424,950.41665 184.4183,949.03731 173.33528,942.52558 C 162.22494,935.9978 164.57004,923.85693 159.44465,919.20864"
       style="fill:#ffffff;fill-opacity:1;fill-rule:evenodd;stroke:#000000;stroke-width:1px;stroke-linecap:round;stroke-linejoin:round;stroke-opacity:1"
       id="path3309" />
  </g>
</svg>

<?xml version="1.0" encoding="UTF-8"?>
<svg version="1.0" viewBox="0 0 218.15 255.52" xmlns="http://www.w3.org/2000/svg">
<g transform="translate(-17.811 -805.84)" stroke="#000">
<path d="m18.847 806.87 3.9286 165.04c2.8062 117.88 205.41 117.88 208.22 0l3.9286-165.04h-216.07z" fill="#2a70c8" fill-rule="evenodd" stroke-width="2.071"/>
<path d="m152.93 936.95c5.2686 7.6914 16.913 11.825 12.339 19.569-3.5083 5.9401-15.86 28.918-19.844 28.549-4.1069-0.38086-8.3645 7.3808-9.3952 9.3373-1.0168 1.9302-5.047 8.0427-3.6236 8.5619 1.3164 0.4802 2.6834 0.6658 2.9898-0.1076 0.46735-0.7762 3.5541-8.0857 4.3838-9.1977-0.82971 1.112-3.9164 8.4215-4.3838 9.1977-0.30641 0.7734-1.7044 2.1032-1.4743 4.2226 0.22341 2.0578 11.462 2.104 12.726-1.3532 0.97378-2.6637 0.42138-10.53 0.42998-12.254 0.00924-1.8508 2.3939-2.2818 3.2514-1.4592 0.88931 0.85316 2.8025 2.4724 4.081-0.98643 1.5848-4.2873 4.493-10.844 10.797-18.993 6.7127-8.677 7.9364-14.008 12.651-16.39 4.7847-2.418-4.9626-5.793-5.2323-15.933" fill="#fff" fill-rule="evenodd" stroke-linejoin="round" stroke-width="1px"/>
<path d="m98.253 946.49c-1.8098 0.06404-35.616-1.53-36.881-0.13756-1.2961 1.4269-5.7673-0.46668-4.0588 8.4723 1.7107 8.9503 5.7657 13.314 6.6537 14.651 0.87184 1.3134-0.39559 2.0335-2.1887 1.5696-1.7348-0.44879-1.5222 1.2665-0.429 3.5525 1.0932 2.286 7.6939 2.4815 9.3795 6.3242 1.6754 3.8194 2.7085 8.5056 0.62163 8.3995-2.1491-0.10929-3.0827 0.19008-3.7027-0.56768-0.65648-0.8023-4.7134-3.1348-5.3181-4.3835 0.60467 1.2487 4.6616 3.5812 5.3181 4.3835 0.62001 0.75776 0.39665 2.1597-2.3948 1.1325-2.7367-1.007-5.6993-4.9889-7.0001-6.7352-1.3008-1.7462-4.4724-6.111-4.3471-10.468 0.12537-4.2945-4.6031-22.239-4.676-25.958-0.072822-3.7813 1.2485-5.4395 4.1292-7.1385 2.853-1.6827 11.051-6.0566 24.32-5.2695" fill="#fff" fill-rule="evenodd" stroke-linejoin="round" stroke-width="1px"/>
<path d="m49.102 851.45c-7.7455-0.48584-3.4104 9.6011 1.5635 5.9123 4.413-2.4425 9.5568-3.1691 19.136-2.9508-9.5795-0.2183-14.723 0.50835-19.136 2.9508s-6.975 7.3416-8.7871 13.027c-1.8089 5.6754-8.0927 17.091-1.5134 17.255-0.60905 3.586 0.074165 6.577 4.5918 6.6447 4.454 0.06675 7.7979-0.94625 7.9232-4.6239 0.12535-3.74 9.0751-8.9275 14.516-9.8389 0.058756 1.0879-6.8e-4 3.7886-0.073013 5.1332-0.075675 1.4067 1.5044 1.9804 1.4208 3.1194-0.088134 1.2009-1.5999 1.4094-1.7627 3.5254-0.15804 2.054-1.1688 4.1603 0.17627 7.0507-3.5864 4.192-3.8455 8.5198 0.70507 13.044-2.9489 4.1058-1.9033 7.8399 2.2915 11.281-2.7177 1.7259-2.1861 7.3181 1.4101 7.4033 0.080586 3.0601 3.3347 5.261 6.113 3.9382-0.5298 4.1984 1.5846 5.6614 5.8732 4.8752 1.2122 2.8311 15.512 1.1751 23.267 1.7627 2.9685 3.4225 6.2379 3.5357 9.871-0.35253 2.248 3.4197 6.8035 3.6536 10.752-1.0576 1.59 3.2044 6.722 2.3561 9.5185-0.52881 3.607 2.0501 7.1353 1.8978 10.576-0.70507 1.3496 2.6788 5.1296 2.5447 7.227-0.17627 2.1848 2.3989 4.5336 2.4205 7.0507 0 2.1633 1.6453 4.6382 1.5456 7.0507-1.2339 9.0484 0.58756 18.097 1.1751 27.145 1.7627 1.2035 2.815 4.2767 7.6242 8.2846 5.6406 1.711 0.6624 3.5468-0.29551 4.0114-2.0013 1.6541 0.37575 2.7474-1.679 2.158-3.1105 1.0488-1.5134 1.4743-3.2761 0.52881-5.288 0.41853-3.0144-2.279-7.5244-5.8489-7.3605 0.92055-3.5734 1.8411-8.7672 0.82972-11.717 0.15671-0.97391-0.30977-2.5087-1.2125-3.5449 0.25997-0.76383 0.08371-2.6494-0.71576-3.2886-0.01599-1.0434-1.0291-2.8345-2.0422-3.8779-1.0077-3.8957-3.0749-6.6697-5.9522-9.5683-0.97034-1.266-1.8784-3.5914-4.0951-3.2993 0.26181-1.4351-0.90975-3.5557-2.9538-2.8719-0.85639-1.8713-2.9592-3.5557-4.7504-2.8096-1.2801-3.1872-5.5516-3.8192-7.4549-2.644-2.7544-1.866-7.0668-2.0494-9.385-0.23859-2.2416-1.5616-5.5426-1.4405-8.5944-0.07301-2.6956-1.0007-5.7029-1.6275-8.4609 0.17627-3.9937-0.91169-6.4294 0.04623-8.9897 1.939-3.4221-0.72473-7.4674-0.76394-9.5185 1.939-0.80499-2.1118-5.1377-3.979-8.2846-0.35254-1.7804-4.0223-7.2377-4.7416-10.576-1.4102-1.1412-2.6103-4.5883-3.6626-7.1005-0.97573 0.45947-3.8602-2.1348-5.3522-4.6667-5.3485 1.3645-3.4418-1.4778-7.9351-6.2763-7.747 0.81037-4.1096-0.66728-6.5543-4.3426-6.5522 1.0579-3.6504-1.834-7.8615-5.9931-7.5795 1.0096-1.8913-0.84621-4.4038-2.9966-4.583 0.18998-2.8003 0.040104-5.4495-5.6406-5.6406-0.10455-2.805-4.0385-3.9753-6.6982-1.2339-0.43669-3.119-5.1453-5.5594-6.3457-1.2339-2.1063-1.9768-4.2633-3.0682-6.6982 0.70507-2.9409-0.60794-4.3111 0.70869-3.9295 3.091-2.8542-0.71587-4.1676 1.8927-3.1976 3.6424z" color="#000000" fill="#fff" fill-rule="evenodd" stroke-linejoin="round" stroke-width="1px"/>
<path transform="translate(0 804.33)" d="m62.928 46.998c3.8999 13.683 13.727 26.198 19.918 26.44 2.0491-9.5405-2.9084-24.105-13.044-27.41" color="#000000" fill="#fff" fill-rule="evenodd" stroke-linecap="round" stroke-linejoin="round" stroke-width="1px"/>
<path transform="translate(0 804.33)" d="m44.076 89.784c0.79061-2.6484 2.9575-5.6966 4.1334-7.2679" color="#000000" fill="none" stroke-linecap="round" stroke-width="1px"/>
<path d="m46.881 873.04c0.54133-2.7731 4.2304-7.1912 7.1754-8.7964" color="#000000" fill="none" stroke-linecap="round" stroke-width="1px"/>
<path transform="matrix(.59743 -.53247 .41033 .4604 -15.427 870.45)" d="m67.334 69.78a3.0406 2.0824 0 1 1-6.0813 0 3.0406 2.0824 0 1 1 6.0813 0z" color="#000000" fill="none" stroke-width="1.4223"/>
<path d="m81.682 1009.9c1.3164 0.4802 2.7457 0.7904 3.0521 0.017 0.46734-0.7762 3.6787-5.6551 4.5084-6.7671-0.82971 1.112-4.0411 5.9909-4.5084 6.7671-0.30641 0.7734-0.54009 3.5851-0.47718 4.9705 0.066906 1.4734 8.7244 1.4203 9.7345-1.104 1.0528-2.6312 2.4135-9.9065 2.9851-11.755 0.54668-1.7682 1.9318-2.5609 2.8151-2.4563 0.88932 0.10531 3.675 2.4724 3.7695-0.42555 0.1445-4.5685-0.67041-3.2255-0.48345-17.061s1.0071-26.935 1.4957-38.015c0.48847-11.077-3.7589-14.187-8.9715-14.063-5.2154 0.1238-9.7784 6.5376-8.3535 12.443 1.4048 5.8218 3.3326 10.527 6.4813 23.183 3.0946 12.438 4.0606 24.959 1.4076 27.801-2.6944 2.8865-8.6277 8.8405-10.081 10.272s-4.7978 5.6745-3.3744 6.1937z" fill="#fff" fill-rule="evenodd" stroke-linejoin="round" stroke-width="1px"/>
<path d="m192.41 900.53c6.9377 2.2237 4.02 27.738 4.9345 35.229 0.92504 7.5776 4.9331 12.663 7.9044 12.346 3.0585-0.32663 6.3389 1.6318 4.2915 4.3163-2.0902 2.7406-3.7716 10.137-4.2422 18.062-0.4662 7.8502-0.15401 20.62-0.9322 22.024-0.76401 1.3789-2.9897 0.21042-3.3439-0.87064-0.34868-1.0641-4.2347 2.3707-5.4005 3.9351-1.3293 1.7839 1.1986 9.8322-0.51628 12.732-1.7308 2.9266-9.6145 6.5681-10.191 3.6034-0.57467-2.9535 0.11087-4.5139 0.49775-5.4133 0.40962-0.9523 3.741-6.9016 4.5708-8.0136-0.82971 1.112-4.1611 7.0613-4.5708 8.0136-0.38688 0.8994-1.5488 2.1458-3.1767 1.4786-1.607-0.6586 1.9383-7.7568 3.312-9.1851 1.3423-1.3956 6.1286-6.9314 9.2706-10.272 3.1108-3.3075 6.94-31.944 2.1447-35.03-4.7672-3.0681-12.543-4.4474-23.626-10.959-11.11-6.5278-8.7652-18.669-13.891-23.317" fill="#fff" fill-rule="evenodd" stroke-linecap="round" stroke-linejoin="round" stroke-width="1px"/>
</g>
</svg>
